assets/svg/medel.svg

<?xml version="1.0" encoding="UTF-8"?>
<svg width="1000px" height="1000px" viewBox="0 0 1000 1000" version="1.1" xmlns="http://www.w3.org/2000/svg" xmlns:xlink="http://www.w3.org/1999/xlink">
    <!-- Generator: sketchtool 52.4 (67378) - http://www.bohemiancoding.com/sketch -->
    <title>medel</title>
    <desc>Created with sketchtool.</desc>
    <g id="新版图标" stroke="none" stroke-width="1" fill="none" fill-rule="evenodd">
        <g id="medel" fill="#323233">
            <g id="圆角-积分商城1--面">
                <g id="圆角-积分商城1-面">
                    <path d="M443.944444,225.727166 L443.944444,110.611111 L556.055556,110.611111 L556.055556,225.727166 C618.594663,234.743906 677.419702,258.796013 728.116743,295.503037 L777.193265,222.196544 C777.248363,222.114242 777.277778,222.017431 777.277778,221.918388 L777.277778,56.5555556 C777.277778,56.2794132 777.05392,56.0555556 776.777778,56.0555556 L223.222222,56.0555556 C222.94608,56.0555556 222.722222,56.2794132 222.722222,56.5555556 L222.722222,221.921042 C222.722222,222.019257 222.751147,222.115296 222.805388,222.197174 L271.534419,295.755904 C322.308639,258.907572 381.260357,234.76481 443.944444,225.727167 Z" id="Combined-Shape" stroke="#323233"></path>
                    <path d="M500,944.444444 C315.905083,944.444444 166.666667,795.206028 166.666667,611.111111 C166.666667,427.016195 315.905083,277.777778 500,277.777778 C684.094917,277.777778 833.333333,427.016195 833.333333,611.111111 C833.333333,795.206028 684.094917,944.444444 500,944.444444 Z M500.707107,454.683378 C500.316582,454.292853 499.683418,454.292853 499.292893,454.683378 L343.572267,610.404004 C343.181742,610.794529 343.181742,611.427694 343.572267,611.818218 L499.292893,767.538845 C499.683418,767.929369 500.316582,767.929369 500.707107,767.538845 L656.427733,611.818218 C656.818258,611.427694 656.818258,610.794529 656.427733,610.404004 L500.707107,454.683378 Z" id="Combined-Shape"></path>
                </g>
            </g>
        </g>
    </g>
</svg>

<svg width="1000" height="1000" xmlns="http://www.w3.org/2000/svg"><g fill="#323233" fill-rule="evenodd"><path d="M443.944 225.727V110.611h112.112v115.116c62.539 9.017 121.364 33.069 172.06 69.776l49.077-73.306a.5.5 0 0 0 .085-.279V56.556a.5.5 0 0 0-.5-.5H223.222a.5.5 0 0 0-.5.5V221.92a.5.5 0 0 0 .083.276l48.73 73.559c50.774-36.848 109.725-60.991 172.41-70.029z" stroke="#323233"/><path d="M500 944.444c-184.095 0-333.333-149.238-333.333-333.333 0-184.095 149.238-333.333 333.333-333.333 184.095 0 333.333 149.238 333.333 333.333 0 184.095-149.238 333.333-333.333 333.333zm.707-489.76a1 1 0 0 0-1.414 0l-155.72 155.72a1 1 0 0 0 0 1.414l155.72 155.72a1 1 0 0 0 1.414 0l155.72-155.72a1 1 0 0 0 0-1.414l-155.72-155.72z"/></g></svg>
